symbols/web/water_drop/materialsymbolsrounded/water_drop_wght500grad200_48px.svg

<svg xmlns="http://www.w3.org/2000/svg" height="48" width="48"><path d="M24 44.95q-6.7 0-11.775-4.675T7.15 27.7q0-4.9 3.625-10.575Q14.4 11.45 21.9 4.8q.4-.35.975-.6T24 3.95q.55 0 1.125.25t1.025.6q7.45 6.65 11.075 12.325Q40.85 22.8 40.85 27.7q0 7.9-5.075 12.575Q30.7 44.95 24 44.95Zm0-3.9q5.5 0 9.225-3.8 3.725-3.8 3.725-9.6 0-3.95-3.325-8.975Q30.3 13.65 24 8.1q-6.3 5.55-9.625 10.575Q11.05 23.7 11.05 27.65q0 5.8 3.725 9.6T24 41.05Zm0-11.5Zm-.05 8q.9 0 1.375-.35t.475-.9q0-.55-.475-.925T23.95 35q-2.2 0-4.2-1.25t-2.6-4.45q-.1-.5-.475-.825-.375-.325-.825-.325-.7 0-1 .475-.3.475-.2.975.75 4.2 3.55 6.075t5.75 1.875Z"/></svg>

<svg xmlns="http://www.w3.org/2000/svg" height="48" width="48"><path d="M24 44.95Q17.3 44.95 12.225 40.275Q7.15 35.6 7.15 27.7Q7.15 22.8 10.775 17.125Q14.4 11.45 21.9 4.8Q22.3 4.45 22.875 4.2Q23.45 3.95 24 3.95Q24.55 3.95 25.125 4.2Q25.7 4.45 26.15 4.8Q33.6 11.45 37.225 17.125Q40.85 22.8 40.85 27.7Q40.85 35.6 35.775 40.275Q30.7 44.95 24 44.95ZM24 41.05Q29.5 41.05 33.225 37.25Q36.95 33.45 36.95 27.65Q36.95 23.7 33.625 18.675Q30.3 13.65 24 8.1Q17.7 13.65 14.375 18.675Q11.05 23.7 11.05 27.65Q11.05 33.45 14.775 37.25Q18.5 41.05 24 41.05ZM24 29.55Q24 29.55 24 29.55Q24 29.55 24 29.55Q24 29.55 24 29.55Q24 29.55 24 29.55Q24 29.55 24 29.55Q24 29.55 24 29.55Q24 29.55 24 29.55Q24 29.55 24 29.55ZM23.95 37.55Q24.85 37.55 25.325 37.2Q25.8 36.85 25.8 36.3Q25.8 35.75 25.325 35.375Q24.85 35 23.95 35Q21.75 35 19.75 33.75Q17.75 32.5 17.15 29.3Q17.05 28.8 16.675 28.475Q16.3 28.15 15.85 28.15Q15.15 28.15 14.85 28.625Q14.55 29.1 14.65 29.6Q15.4 33.8 18.2 35.675Q21 37.55 23.95 37.55Z"/></svg>
